X: 308
T: Hangul (Moldavian Dance)
O: Moldavia
Q: 1/4=104
B: German Goldenshteyn "Shpilt klezmorimlach klingen zoln di gesalach" New York 2003 v.3 #8
Z: 2012 John Chambers <jc:trillian.mit.edu>
M: 4/4
L: 1/16
K: Am
|:\
(3(^G2A2)E2 (3(G2A2)E2 (3(B2d2)c2 (TB3A) | (3(^c2d2)A2 (3(c2d2)A2 (3(e2g2)f2 (Te3d) |\
(3(^d2e2)c2 (3(B2c2)A2 (3(^G2A2)F2 (3(E2F2)D2 |[1 (3(E2^G2)B2 (3(d2c2)B2 (3(A2c2)d2 e4 |\
[2 (3(E2^G2)B2 (3(d2c2)B2 A4 z2 ||
|:\
(^gb)a2 a2a2 a2a2 (Ta3g) | (^fg)a2 a2a2 f2e2 (T^d3c) |\
(Bc)^d2- d2e2 ^f2g2 (Tf3e) | (^de)^f2- f2e2 d2c2 (TB3A) :|
|:\
(Bc)^d2- d(cBc) (de^fe) (Td3c) | (Bc)^d2- d(cBc) (ABc^d) e4 |\
(Bc)^d2- d(cBc) (de^fe) (Td3c) | (Bc)^d2- dcB^G A4 z4 :|
